storage/app/icons/phosphoricons/regular/article.svg

<svg xmlns="http://www.w3.org/2000/svg" fill="currentColor" viewBox="0 0 256 256"><path d="M216 40H40a16 16 0 0 0-16 16v144a16 16 0 0 0 16 16h176a16 16 0 0 0 16-16V56a16 16 0 0 0-16-16m0 160H40V56h176zM184 96a8 8 0 0 1-8 8H80a8 8 0 0 1 0-16h96a8 8 0 0 1 8 8m0 32a8 8 0 0 1-8 8H80a8 8 0 0 1 0-16h96a8 8 0 0 1 8 8m0 32a8 8 0 0 1-8 8H80a8 8 0 0 1 0-16h96a8 8 0 0 1 8 8"/></svg>

<svg xmlns="http://www.w3.org/2000/svg" viewBox="0 0 256 256" fill="currentColor"><path d="M216,40H40A16,16,0,0,0,24,56V200a16,16,0,0,0,16,16H216a16,16,0,0,0,16-16V56A16,16,0,0,0,216,40Zm0,160H40V56H216V200ZM184,96a8,8,0,0,1-8,8H80a8,8,0,0,1,0-16h96A8,8,0,0,1,184,96Zm0,32a8,8,0,0,1-8,8H80a8,8,0,0,1,0-16h96A8,8,0,0,1,184,128Zm0,32a8,8,0,0,1-8,8H80a8,8,0,0,1,0-16h96A8,8,0,0,1,184,160Z"/></svg>
